ubersicht/widgets/weather.widget/lib/icons/night-wind.svg

<svg xmlns="http://www.w3.org/2000/svg" xml:space="preserve" style="fill-rule:evenodd;clip-rule:evenodd;stroke-linejoin:round;stroke-miterlimit:2" viewBox="0 0 200 200">
    <path d="M-681.791-1175.76h3426.96v2296.67h-3426.96z"/>
    <g transform="matrix(1.02577 0 0 1.47613 -21.394 -42.573)">
        <path d="M20.856 28.841h194.975v135.49H20.856z" style="fill:none"/>
        <clipPath id="a">
            <path d="M20.856 28.841h194.975v135.49H20.856z"/>
        </clipPath>
        <g clip-path="url(#a)">
            <path d="M259.361 376.175c3.324-21.961 22.049-38.897 44.802-39.439-13.141 18.504-14.446 40.519-2.128 51.721 11.942 10.86 32.789 8.011 49.701-5.689l.001.405c0 19.998-12.664 37.061-30.403 43.599a35.7 35.7 0 0 0-5.659-7.982c-9.518-10.125-24.051-11.492-32.634-11.673-2.42-8.778-8.207-22.943-23.68-30.942" style="fill:#fff700" transform="matrix(.84396 0 0 .58647 -94.437 -168.646)"/>
            <path d="M59.694 92.473c2.238-10.8 13.266-32.983 39.401-31.446 27.803 1.635 36.027 20.475 38.83 30.639 7.145.151 19.243 1.289 27.167 9.718 5.218 5.551 9.131 13.987 8.824 27.031-.294 12.469-11.774 26.563-24.142 29.85-9.87 2.623-28.724 1.291-47.131.936-16.87-.325-33.365.48-42.224-.621-8.593-1.069-17.961-8.497-21.796-14.136-3.991-5.87-5.19-12.478-5.178-18.679.022-10.397 3.434-16.557 7.253-21.658 5.878-7.852 13.634-10.551 18.996-11.634m10.18 10.227c-7.902 1.07-13.874 1.4-19.208 8.526-2.468 3.297-4.633 7.931-4.647 14.651a20 20 0 0 0 3.426 11.166c2.429 3.574 8.09 8.711 13.527 9.226 7.742.733 23.272.409 39.359.564 17.324.166 35.095.906 43.62-.769 8.02-1.576 15.3-11.324 15.478-18.879.198-8.413-2.686-13.088-6.052-16.668-7.815-8.314-14.76-6.575-20.145-6.735-1.997-.06-7.05-.045-7.05-.045s-.422-3.737-.577-5.581c0 0-2.997-23.542-29.046-25.074-11.026-.648-18.547 5.237-22.365 11.348-4.146 6.636-3.834 6.406-4.887 9.451-.974 2.814-.948 6.219-1.433 8.819" style="fill:#fff" transform="matrix(1.01377 0 0 .70447 .367 12.305)"/>
            <path d="M27.889 140.854c-2.248.014-4.041.703-4.002 1.538.039.834 1.895 1.5 4.143 1.485l47.189-.302q.226-.002.451-.013s5.062-.254 8.742-1.129c2.965-.705 4.966-1.723 6.008-2.878.881-.978 1.067-3.016.133-3.943-1.188-1.178-3.195-2.315-7.338-3.267-4.373-1.004-10.112-1.089-13.755-.865-3.173.196-6.819.921-9.263 2.449-2.522 1.578-2.789 3.618-2.789 3.618-.099.834 1.645 1.54 3.89 1.577s4.149-.611 4.248-1.445c0 0 .121-1.246 1.656-2.207.968-.605 2.335-.931 3.591-1.009 2.148-.132 5.557-.139 8.135.454 2.238.514 3.354 1.118 3.995 1.754.456.453.202 1.447-.228 1.924-.466.518-1.35.976-2.677 1.292-1.908.454-4.431.623-5.186.666z" style="fill:#0e00ff" transform="matrix(.63827 0 0 -1.1949 36.364 318.098)"/>
            <path d="M28.03 143.877c-2.248.015-4.104-.651-4.143-1.485s1.754-1.524 4.002-1.538l46.948-.301c.738-.042 3.269-.211 5.181-.666 1.327-.316 2.211-.774 2.677-1.292.43-.477.684-1.471.228-1.924-.641-.636-1.757-1.24-3.995-1.754-2.578-.593-5.987-.586-8.135-.454-1.256.078-2.623.404-3.591 1.009-1.535.961-1.656 2.207-1.656 2.207-.099.834-2.002 1.481-4.248 1.445-2.245-.037-3.989-.743-3.89-1.577 0 0 .267-2.04 2.789-3.618 2.444-1.528 6.09-2.253 9.263-2.449 3.643-.224 9.382-.139 13.755.865 4.143.952 6.15 2.089 7.338 3.267.934.927.748 2.965-.133 3.943-1.042 1.155-3.043 2.173-6.008 2.878-3.68.875-8.742 1.129-8.742 1.129q-.226.011-.451.013z" style="fill:#0e00ff" transform="matrix(.63827 0 0 1.1949 52.245 -29.9)"/>
            <path d="M7.534 235.956a2.67 2.67 0 0 1-2.667-2.667 2.67 2.67 0 0 1 2.667-2.666h22.055a2.67 2.67 0 0 1 2.666 2.666 2.67 2.67 0 0 1-2.666 2.667z" style="fill:#0e00ff" transform="matrix(.97487 0 0 .67745 29.528 -17.828)"/>
            <path d="M83.728 139.642c.385-.456.463-1.198.337-2.232-.121-.997-1.041-1.234-1.833-1.322-1.402-.156-2.751.129-2.751.129-1.42.301-2.848-.471-3.189-1.723s.534-2.514 1.953-2.814c0 0 2.279-.485 4.648-.222 2.982.331 5.976 1.698 6.431 5.456.37 3.05-.665 5-1.996 6.169-.578.508-2.553 1.228-2.553 1.228-.273.085-.56.129-.849.131l-42.411.348c-1.46.012-2.656-1.024-2.669-2.312-.014-1.288 1.16-2.343 2.619-2.355l41.898-.343z" style="fill:#0e00ff" transform="matrix(.86022 0 0 .67745 3.75 36.507)"/>
        </g>
    </g>
</svg>

<?xml version="1.0" encoding="UTF-8" standalone="no"?>
<!DOCTYPE svg PUBLIC "-//W3C//DTD SVG 1.1//EN" "http://www.w3.org/Graphics/SVG/1.1/DTD/svg11.dtd">
<svg width="100%" height="100%" viewBox="0 0 200 200" version="1.1" xmlns="http://www.w3.org/2000/svg" xmlns:xlink="http://www.w3.org/1999/xlink" xml:space="preserve" xmlns:serif="http://www.serif.com/" style="fill-rule:evenodd;clip-rule:evenodd;stroke-linejoin:round;stroke-miterlimit:2;">
    <g transform="matrix(1,0,0,1,-3.55271e-15,-262.903)">
        <g transform="matrix(1,0,0,1,375.349,-172.397)">
            <rect x="-1057.14" y="-740.46" width="3426.96" height="2296.67"/>
        </g>
        <g id="NightWind" transform="matrix(1.02577,0,0,1.47613,-21.3937,220.33)">
            <rect x="20.856" y="28.841" width="194.975" height="135.49" style="fill:none;"/>
            <clipPath id="_clip1">
                <rect x="20.856" y="28.841" width="194.975" height="135.49"/>
            </clipPath>
            <g clip-path="url(#_clip1)">
                <g transform="matrix(0.843958,0,0,0.586474,-94.4374,-168.646)">
                    <path d="M259.361,376.175C262.685,354.214 281.41,337.278 304.163,336.736C291.022,355.24 289.717,377.255 302.035,388.457C313.977,399.317 334.824,396.468 351.736,382.768L351.737,383.173C351.737,403.171 339.073,420.234 321.334,426.772C319.714,423.667 317.783,421.032 315.675,418.79C306.157,408.665 291.624,407.298 283.041,407.117C280.621,398.339 274.834,384.174 259.361,376.175Z" style="fill:rgb(255,247,0);"/>
                </g>
                <g transform="matrix(1.01377,0,0,0.704474,0.367163,12.305)">
                    <path d="M59.694,92.473C61.932,81.673 72.96,59.49 99.095,61.027C126.898,62.662 135.122,81.502 137.925,91.666C145.07,91.817 157.168,92.955 165.092,101.384C170.31,106.935 174.223,115.371 173.916,128.415C173.622,140.884 162.142,154.978 149.774,158.265C139.904,160.888 121.05,159.556 102.643,159.201C85.773,158.876 69.278,159.681 60.419,158.58C51.826,157.511 42.458,150.083 38.623,144.444C34.632,138.574 33.433,131.966 33.445,125.765C33.467,115.368 36.879,109.208 40.698,104.107C46.576,96.255 54.332,93.556 59.694,92.473ZM69.874,102.7C61.972,103.77 56,104.1 50.666,111.226C48.198,114.523 46.033,119.157 46.019,125.877C46.011,129.547 47.082,133.569 49.445,137.043C51.874,140.617 57.535,145.754 62.972,146.269C70.714,147.002 86.244,146.678 102.331,146.833C119.655,146.999 137.426,147.739 145.951,146.064C153.971,144.488 161.251,134.74 161.429,127.185C161.627,118.772 158.743,114.097 155.377,110.517C147.562,102.203 140.617,103.942 135.232,103.782C133.235,103.722 128.182,103.737 128.182,103.737C128.182,103.737 127.76,100 127.605,98.156C127.605,98.156 124.608,74.614 98.559,73.082C87.533,72.434 80.012,78.319 76.194,84.43C72.048,91.066 72.36,90.836 71.307,93.881C70.333,96.695 70.359,100.1 69.874,102.7Z" style="fill:white;"/>
                </g>
                <g transform="matrix(0.638272,0,0,-1.1949,36.3642,318.098)">
                    <path d="M27.889,140.854C25.641,140.868 23.848,141.557 23.887,142.392C23.926,143.226 25.782,143.892 28.03,143.877L75.219,143.575C75.369,143.574 75.52,143.569 75.67,143.562C75.67,143.562 80.732,143.308 84.412,142.433C87.377,141.728 89.378,140.71 90.42,139.555C91.301,138.577 91.487,136.539 90.553,135.612C89.365,134.434 87.358,133.297 83.215,132.345C78.842,131.341 73.103,131.256 69.46,131.48C66.287,131.676 62.641,132.401 60.197,133.929C57.675,135.507 57.408,137.547 57.408,137.547C57.309,138.381 59.053,139.087 61.298,139.124C63.544,139.16 65.447,138.513 65.546,137.679C65.546,137.679 65.667,136.433 67.202,135.472C68.17,134.867 69.537,134.541 70.793,134.463C72.941,134.331 76.35,134.324 78.928,134.917C81.166,135.431 82.282,136.035 82.923,136.671C83.379,137.124 83.125,138.118 82.695,138.595C82.229,139.113 81.345,139.571 80.018,139.887C78.11,140.341 75.587,140.51 74.832,140.553L27.889,140.854Z" style="fill:rgb(14,0,255);"/>
                </g>
                <g transform="matrix(0.638272,0,0,1.1949,52.2448,-29.8996)">
                    <path d="M28.03,143.877C25.782,143.892 23.926,143.226 23.887,142.392C23.848,141.557 25.641,140.868 27.889,140.854L74.837,140.553C75.575,140.511 78.106,140.342 80.018,139.887C81.345,139.571 82.229,139.113 82.695,138.595C83.125,138.118 83.379,137.124 82.923,136.671C82.282,136.035 81.166,135.431 78.928,134.917C76.35,134.324 72.941,134.331 70.793,134.463C69.537,134.541 68.17,134.867 67.202,135.472C65.667,136.433 65.546,137.679 65.546,137.679C65.447,138.513 63.544,139.16 61.298,139.124C59.053,139.087 57.309,138.381 57.408,137.547C57.408,137.547 57.675,135.507 60.197,133.929C62.641,132.401 66.287,131.676 69.46,131.48C73.103,131.256 78.842,131.341 83.215,132.345C87.358,133.297 89.365,134.434 90.553,135.612C91.487,136.539 91.301,138.577 90.42,139.555C89.378,140.71 87.377,141.728 84.412,142.433C80.732,143.308 75.67,143.562 75.67,143.562C75.52,143.569 75.369,143.574 75.219,143.575L28.03,143.877Z" style="fill:rgb(14,0,255);"/>
                </g>
                <g transform="matrix(0.974874,0,0,0.677448,29.5277,-17.8285)">
                    <path d="M7.534,235.956C6.062,235.956 4.867,234.761 4.867,233.289C4.867,231.818 6.062,230.623 7.534,230.623L29.589,230.623C31.06,230.623 32.255,231.818 32.255,233.289C32.255,234.761 31.06,235.956 29.589,235.956L7.534,235.956Z" style="fill:rgb(14,0,255);"/>
                </g>
                <g transform="matrix(0.860223,0,0,0.677448,3.75063,36.5067)">
                    <path d="M83.728,139.642C84.113,139.186 84.191,138.444 84.065,137.41C83.944,136.413 83.024,136.176 82.232,136.088C80.83,135.932 79.481,136.217 79.481,136.217C78.061,136.518 76.633,135.746 76.292,134.494C75.951,133.241 76.826,131.98 78.245,131.68C78.245,131.68 80.524,131.195 82.893,131.458C85.875,131.789 88.869,133.156 89.324,136.914C89.694,139.964 88.659,141.914 87.328,143.083C86.75,143.591 84.775,144.311 84.775,144.311C84.502,144.396 84.215,144.44 83.926,144.442L41.515,144.79C40.055,144.802 38.859,143.766 38.846,142.478C38.832,141.19 40.006,140.135 41.465,140.123L83.363,139.78L83.728,139.642Z" style="fill:rgb(14,0,255);"/>
                </g>
            </g>
        </g>
    </g>
</svg>
